assets/images/process_arr2.svg

<svg width="349" height="53" viewBox="0 0 349 53" fill="none" xmlns="http://www.w3.org/2000/svg">
<path d="M346.456 43.8436C348.027 43.3155 348.872 41.6143 348.344 40.0439L339.738 14.4519C339.21 12.8814 337.509 12.0364 335.939 12.5644C334.368 13.0925 333.523 14.7937 334.051 16.3641L341.7 39.1126L318.952 46.7616C317.381 47.2897 316.536 48.9909 317.064 50.5613C317.592 52.1318 319.294 52.9768 320.864 52.4487L346.456 43.8436ZM346.835 38.3132C321.117 25.5385 268.642 6.71914e-06 176.5 1.47744e-05L176.5 6.00001C267.358 6.00001 318.883 31.1282 344.165 43.6868L346.835 38.3132ZM176.5 1.47744e-05C87.8777 2.25221e-05 29.5891 25.5297 0.787506 38.256L3.21249 43.7441C31.7442 31.137 89.1223 6.00002 176.5 6.00001L176.5 1.47744e-05Z" fill="black"/>
</svg>

<svg width="349" height="53" fill="none" xmlns="http://www.w3.org/2000/svg"><path d="M346.456 43.844a3 3 0 001.888-3.8l-8.606-25.592a3 3 0 10-5.687 1.912l7.649 22.749-22.748 7.649a3 3 0 101.912 5.687l25.592-8.605zm.379-5.53C321.117 25.537 268.642 0 176.5 0v6c90.858 0 142.383 25.128 167.665 37.687l2.67-5.374zM176.5 0C87.878 0 29.59 25.53.788 38.256l2.424 5.488C31.744 31.137 89.122 6 176.5 6V0z" fill="#000"/></svg>
